tenants/donaldduck/icons/profile_logged_in.svg

<svg fill="none" height="24" viewBox="0 0 24 24" width="24" xmlns="http://www.w3.org/2000/svg"><path d="m14.249 5.75c0 .99456-.3951 1.94839-1.0983 2.65165-.7033.70326-1.6571 1.09835-2.6517 1.09835-.99456 0-1.94839-.39509-2.65165-1.09835s-1.09835-1.65709-1.09835-2.65165.39509-1.94839 1.09835-2.65165 1.65709-1.09835 2.65165-1.09835c.9946 0 1.9484.39509 2.6517 1.09835.7032.70326 1.0983 1.65709 1.0983 2.65165zm-11.249 14.118c.03213-1.9676.83634-3.8438 2.23918-5.224 1.40284-1.3801 3.29191-2.1535 5.25982-2.1535 1.9679 0 3.857.7734 5.2598 2.1535 1.4029 1.3802 2.2071 3.2564 2.2392 5.224-2.3523 1.0798-4.9107 1.6366-7.499 1.632-2.676 0-5.216-.584-7.499-1.632z" stroke="#000" stroke-linecap="round" stroke-linejoin="round" stroke-width="2"/><path d="m17.5 22.5c2.7614 0 5-2.2386 5-5s-2.2386-5-5-5-5 2.2386-5 5 2.2386 5 5 5z" fill="#558f3f" stroke="#fff"/><g clip-rule="evenodd" fill="#fff" fill-rule="evenodd"><path d="m19.8557 16.1459c.0465.0465.0835.1016.1087.1624.0252.0607.0382.1259.0382.1916 0 .0658-.013.1309-.0382.1917-.0252.0607-.0622.1159-.1087.1623l-2.5 2.5c-.0939.0939-.2213.1466-.354.1466-.1328 0-.2601-.0527-.354-.1466s-.1467-.2212-.1467-.354.0528-.2601.1467-.354l2.5-2.5c.0464-.0465.1016-.0835.1623-.1087.0608-.0252.1259-.0382.1917-.0382.0657 0 .1309.013.1916.0382s.1159.0622.1624.1087z"/><path d="m15.1478 17.1459c-.0466.0465-.0835.1016-.1087.1624-.0252.0607-.0382.1259-.0382.1916 0 .0658.013.1309.0382.1917.0252.0607.0621.1159.1087.1623l1.5 1.5c.0939.0939.2212.1466.354.1466s.2601-.0527.354-.1466.1466-.2212.1466-.354-.0527-.2601-.1466-.354l-1.5-1.5c-.0464-.0465-.1016-.0835-.1624-.1087-.0607-.0252-.1258-.0382-.1916-.0382s-.1309.013-.1916.0382c-.0608.0252-.1159.0622-.1624.1087z"/></g></svg>

<svg width="24" height="24" viewBox="0 0 24 24" fill="none" xmlns="http://www.w3.org/2000/svg">
<path d="M14.249 5.75C14.249 6.74456 13.8539 7.69839 13.1507 8.40165C12.4474 9.10491 11.4936 9.5 10.499 9.5C9.50444 9.5 8.55061 9.10491 7.84735 8.40165C7.14409 7.69839 6.749 6.74456 6.749 5.75C6.749 4.75544 7.14409 3.80161 7.84735 3.09835C8.55061 2.39509 9.50444 2 10.499 2C11.4936 2 12.4474 2.39509 13.1507 3.09835C13.8539 3.80161 14.249 4.75544 14.249 5.75ZM3 19.868C3.03213 17.9004 3.83634 16.0242 5.23918 14.644C6.64202 13.2639 8.53109 12.4905 10.499 12.4905C12.4669 12.4905 14.356 13.2639 15.7588 14.644C17.1617 16.0242 17.9659 17.9004 17.998 19.868C15.6457 20.9478 13.0873 21.5046 10.499 21.5C7.823 21.5 5.283 20.916 3 19.868Z" stroke="black" stroke-width="2" stroke-linecap="round" stroke-linejoin="round"/>
<path d="M17.5 22.5C20.2614 22.5 22.5 20.2614 22.5 17.5C22.5 14.7386 20.2614 12.5 17.5 12.5C14.7386 12.5 12.5 14.7386 12.5 17.5C12.5 20.2614 14.7386 22.5 17.5 22.5Z" fill="#558F3F" stroke="white"/>
<path fill-rule="evenodd" clip-rule="evenodd" d="M19.8557 16.1459C19.9022 16.1924 19.9392 16.2475 19.9644 16.3083C19.9896 16.369 20.0026 16.4342 20.0026 16.4999C20.0026 16.5657 19.9896 16.6308 19.9644 16.6916C19.9392 16.7523 19.9022 16.8075 19.8557 16.8539L17.3557 19.3539C17.2618 19.4478 17.1344 19.5005 17.0017 19.5005C16.8689 19.5005 16.7416 19.4478 16.6477 19.3539C16.5538 19.26 16.501 19.1327 16.501 18.9999C16.501 18.8671 16.5538 18.7398 16.6477 18.6459L19.1477 16.1459C19.1941 16.0994 19.2493 16.0624 19.31 16.0372C19.3708 16.012 19.4359 15.999 19.5017 15.999C19.5674 15.999 19.6326 16.012 19.6933 16.0372C19.754 16.0624 19.8092 16.0994 19.8557 16.1459Z" fill="white"/>
<path fill-rule="evenodd" clip-rule="evenodd" d="M15.1478 17.1459C15.1012 17.1924 15.0643 17.2475 15.0391 17.3083C15.0139 17.369 15.0009 17.4342 15.0009 17.4999C15.0009 17.5657 15.0139 17.6308 15.0391 17.6916C15.0643 17.7523 15.1012 17.8075 15.1478 17.8539L16.6478 19.3539C16.7417 19.4478 16.869 19.5005 17.0018 19.5005C17.1346 19.5005 17.2619 19.4478 17.3558 19.3539C17.4497 19.26 17.5024 19.1327 17.5024 18.9999C17.5024 18.8671 17.4497 18.7398 17.3558 18.6459L15.8558 17.1459C15.8094 17.0994 15.7542 17.0624 15.6934 17.0372C15.6327 17.012 15.5676 16.999 15.5018 16.999C15.436 16.999 15.3709 17.012 15.3102 17.0372C15.2494 17.0624 15.1943 17.0994 15.1478 17.1459Z" fill="white"/>
</svg>
